Origami/64x64/apps/photolayoutseditor.svg

<svg width="64" height="64" version="1" xmlns="http://www.w3.org/2000/svg">
 <path d="m4 53v1c0 1.662 1.338 3 3 3h50c1.662 0 3-1.338 3-3v-1c0 1.662-1.338 3-3 3h-50c-1.662 0-3-1.338-3-3z" style="opacity:.2"/>
 <path d="m7 8c-1.662 0-3 1.338-3 3v33h56v-33c0-1.662-1.338-3-3-3h-50zm52.188 47c-0.506 0.506-1.224 0.81-2 0.812l-50.188 0.188h50c0.88 0 1.64-0.4 2.188-1z" style="fill:#8c93dd"/>
 <path d="m7 8c-1.662 0-3 1.338-3 3v1c0-1.662 1.338-3 3-3h50c1.662 0 3 1.338 3 3v-1c0-1.662-1.338-3-3-3h-50z" style="fill:#ffffff;opacity:.2"/>
 <path d="m44 19c4.4182 0 8 3.5818 8 8s-3.5818 8-8 8-8-3.5818-8-8 3.5818-8 8-8z" style="fill-rule:evenodd;opacity:.2"/>
 <path d="m44 18c4.4182 0 8 3.5818 8 8s-3.5818 8-8 8-8-3.5818-8-8 3.5818-8 8-8z" style="fill-rule:evenodd;fill:#fffca3"/>
 <path d="m4 44v9s0 3.012 3 3l50.2-0.2c1.552-6e-3 2.8-1.248 2.8-2.8v-9z" style="fill:#5184b0"/>
 <path d="m4 44v-1.598375s4.0385587-2.663892 5.1738033-2.896256c1.1354047-0.232403 2.4762977-0.04335 3.8543517 0.21658 1.378034 0.258937 3.435335 0.609141 4.07736 0.631039 0.642105 0.02238 1.804031-0.05594 3.154124-0.137461 1.350053-0.07992 3.585341-0.153444 4.282568-0.145452 0.697247 0 2.437896 0.09591 4.293169 0.209048 1.855413 0.113484 4.403773 0.303072 4.981995 0.356118 0.578223 0.05274 1.25787 0.150247 2.02928 0.256559 0.77129 0.105493 2.106683 0.26483 2.578901 0.308646 0.472359 0.04295 1.567502 0.193603 2.838112 0.310405 1.27065 0.116681 3.30413 0.15664 3.891353 0.113484 0.587243-0.04335 1.818131-0.477595 3.189925-0.877988 1.371694-0.400233 2.884313-0.76674 4.034759-0.676112 1.148045 0.091906 7.620299 2.33163 7.620299 2.33163v1.598375h-49.201933z"/>
</svg>

<svg xmlns="http://www.w3.org/2000/svg" width="64" height="64" version="1">
 <path style="opacity:0.2" d="M 4 53 L 4 54 C 4 55.662 5.338 57 7 57 L 57 57 C 58.662 57 60 55.662 60 54 L 60 53 C 60 54.662 58.662 56 57 56 L 7 56 C 5.338 56 4 54.662 4 53 z"/>
 <path style="fill:#8c93dd" d="M 7,8 C 5.338,8 4,9.338 4,11 l 0,33 56,0 0,-33 C 60,9.338 58.662,8 57,8 L 7,8 Z m 52.188,47 c -0.506,0.506 -1.224,0.81 -2,0.812 L 7,56 57,56 c 0.88,0 1.64,-0.4 2.188,-1 z"/>
 <path style="opacity:0.2;fill:#ffffff" d="M 7 8 C 5.338 8 4 9.338 4 11 L 4 12 C 4 10.338 5.338 9 7 9 L 57 9 C 58.662 9 60 10.338 60 12 L 60 11 C 60 9.338 58.662 8 57 8 L 7 8 z"/>
 <path style="opacity:0.2;fill-rule:evenodd" d="m 44,19 c 4.4182,0 8,3.5818 8,8 0,4.4182 -3.5818,8 -8,8 -4.4182,0 -8,-3.5818 -8,-8 0,-4.4182 3.5818,-8 8,-8 z"/>
 <path style="fill:#fffca3;fill-rule:evenodd" d="m 44,18 c 4.4182,0 8,3.5818 8,8 0,4.4182 -3.5818,8 -8,8 -4.4182,0 -8,-3.5818 -8,-8 0,-4.4182 3.5818,-8 8,-8 z"/>
 <path style="fill:#5184b0" d="m 4,44 0,9 c 0,0 0,3.012 3,3 L 57.2,55.8 C 58.752,55.794 60,54.552 60,53 l 0,-9 z"/>
 <path d="m 4,44 0,-1.598375 c 0,0 4.0385587,-2.663892 5.1738033,-2.896256 1.1354047,-0.232403 2.4762977,-0.04335 3.8543517,0.21658 1.378034,0.258937 3.435335,0.609141 4.07736,0.631039 0.642105,0.02238 1.804031,-0.05594 3.154124,-0.137461 1.350053,-0.07992 3.585341,-0.153444 4.282568,-0.145452 0.697247,0 2.437896,0.09591 4.293169,0.209048 1.855413,0.113484 4.403773,0.303072 4.981995,0.356118 0.578223,0.05274 1.25787,0.150247 2.02928,0.256559 0.77129,0.105493 2.106683,0.26483 2.578901,0.308646 0.472359,0.04295 1.567502,0.193603 2.838112,0.310405 1.27065,0.116681 3.30413,0.15664 3.891353,0.113484 0.587243,-0.04335 1.818131,-0.477595 3.189925,-0.877988 1.371694,-0.400233 2.884313,-0.76674 4.034759,-0.676112 C 53.527746,40.162141 60,42.401865 60,42.401865 l 0,1.598375 -49.201933,0 z"/>
</svg>
